dist/assets/img/social/youtube.svg

<svg width="27" height="19" viewBox="0 0 27 19" fill="none" xmlns="http://www.w3.org/2000/svg">
<path d="M25.6215 3.17358C25.3298 2.08918 24.4748 1.23436 23.3906 0.94236C21.4098 0.400391 13.4865 0.400391 13.4865 0.400391C13.4865 0.400391 5.56353 0.400391 3.58274 0.921812C2.51935 1.2135 1.64352 2.08933 1.35183 3.17358C0.830566 5.15421 0.830566 9.26177 0.830566 9.26177C0.830566 9.26177 0.830566 13.39 1.35183 15.35C1.64383 16.4342 2.4985 17.289 3.5829 17.581C5.58438 18.1232 13.4868 18.1232 13.4868 18.1232C13.4868 18.1232 21.4098 18.1232 23.3906 17.6017C24.475 17.3099 25.3298 16.4551 25.6218 15.3708C26.1429 13.39 26.1429 9.28263 26.1429 9.28263C26.1429 9.28263 26.1638 5.15421 25.6215 3.17358ZM10.9639 13.0565V5.46706L17.5525 9.26177L10.9639 13.0565Z" fill="#656565"/>
</svg>

<svg width="27" height="19" viewBox="0 0 27 19" fill="none" xmlns="http://www.w3.org/2000/svg"><path d="M25.622 3.174A3.171 3.171 0 0023.39.942C21.41.4 13.487.4 13.487.4S5.563.4 3.582.922a3.235 3.235 0 00-2.231 2.252C.83 5.154.83 9.262.83 9.262s0 4.128.52 6.088a3.172 3.172 0 002.232 2.231c2.001.542 9.904.542 9.904.542s7.923 0 9.904-.521a3.171 3.171 0 002.23-2.231c.522-1.981.522-6.088.522-6.088s.02-4.129-.521-6.11zm-14.658 9.883v-7.59l6.588 3.795-6.588 3.794z" fill="#656565"/></svg>
